packages/kaspersky-hexa-ui-icons/src/iconsSVGs/16/Support2.svg

<svg width="16" height="16" viewBox="0 0 16 16" fill="none" xmlns="http://www.w3.org/2000/svg">
<path fill-rule="evenodd" clip-rule="evenodd" d="M8.0001 1.3501C4.3274 1.3501 1.3501 4.3274 1.3501 8.0001C1.3501 11.6728 4.3274 14.6501 8.0001 14.6501C11.6728 14.6501 14.6501 11.6728 14.6501 8.0001C14.6501 4.3274 11.6728 1.3501 8.0001 1.3501ZM4.70454 3.78533C5.61289 3.07408 6.75698 2.6501 8.0001 2.6501C9.2432 2.6501 10.3873 3.07407 11.2956 3.78531L9.35735 5.72358C8.96037 5.4864 8.49615 5.3501 8.0001 5.3501C7.50403 5.3501 7.0398 5.4864 6.64281 5.7236L4.70454 3.78533ZM5.72358 6.64285L3.7853 4.70457C3.07407 5.61291 2.6501 6.75699 2.6501 8.0001C2.6501 9.2432 3.07407 10.3873 3.78531 11.2956L5.72358 9.35735C5.4864 8.96037 5.3501 8.49615 5.3501 8.0001C5.3501 7.50405 5.48639 7.03983 5.72358 6.64285ZM6.64282 10.2766L4.70454 12.2149C5.61289 12.9261 6.75698 13.3501 8.0001 13.3501C9.2432 13.3501 10.3873 12.9261 11.2956 12.2149L9.35735 10.2766C8.96037 10.5138 8.49615 10.6501 8.0001 10.6501C7.50403 10.6501 7.0398 10.5138 6.64282 10.2766ZM10.2766 9.35738L12.2149 11.2957C12.9261 10.3873 13.3501 9.24322 13.3501 8.0001C13.3501 6.75698 12.9261 5.61289 12.2149 4.70454L10.2766 6.64282C10.5138 7.0398 10.6501 7.50403 10.6501 8.0001C10.6501 8.49617 10.5138 8.9604 10.2766 9.35738ZM6.6501 8.0001C6.6501 7.25451 7.25451 6.6501 8.0001 6.6501C8.74568 6.6501 9.3501 7.25451 9.3501 8.0001C9.3501 8.74568 8.74568 9.3501 8.0001 9.3501C7.25451 9.3501 6.6501 8.74568 6.6501 8.0001Z" fill="black"/>
</svg>

<svg xmlns="http://www.w3.org/2000/svg" width="16" height="16" fill="none" viewBox="0 0 16 16"><path fill="#000" fill-rule="evenodd" d="M8.0001 1.35c-3.6727 0-6.65 2.9773-6.65 6.65s2.9773 6.65 6.65 6.65 6.65-2.9773 6.65-6.65-2.9773-6.65-6.65-6.65M4.7045 3.7852A5.327 5.327 0 0 1 8.0001 2.65a5.327 5.327 0 0 1 3.2955 1.1352L9.3574 5.7235A2.64 2.64 0 0 0 8 5.35a2.64 2.64 0 0 0-1.3573.3735zm1.019 2.8575L3.7854 4.7045A5.327 5.327 0 0 0 2.6501 8c0 1.243.424 2.3872 1.1352 3.2955l1.9383-1.9383A2.64 2.64 0 0 1 5.35 8c0-.496.1363-.9603.3735-1.3573m.9193 3.6338-1.9383 1.9383A5.327 5.327 0 0 0 8.0001 13.35a5.327 5.327 0 0 0 3.2955-1.1352l-1.9382-1.9383A2.64 2.64 0 0 1 8 10.65a2.64 2.64 0 0 1-1.3573-.3735m3.6338-.9192 1.9383 1.9382A5.327 5.327 0 0 0 13.3501 8a5.327 5.327 0 0 0-1.1352-3.2956l-1.9383 1.9383c.2372.397.3735.8612.3735 1.3573s-.1363.9603-.3735 1.3573M6.6501 8c0-.7456.6044-1.35 1.35-1.35s1.35.6044 1.35 1.35-.6044 1.35-1.35 1.35-1.35-.6044-1.35-1.35"/></svg>
